svg/misc/like-fill.svg

<?xml version="1.0" encoding="UTF-8"?>
<svg xmlns="http://www.w3.org/2000/svg" xmlns:xlink="http://www.w3.org/1999/xlink" width="24" height="24" viewBox="0 0 24 24" version="1.1">
<g id="surface1">
<path style=" stroke:none;fill-rule:evenodd;fill:rgb(0%,0%,0%);fill-opacity:1;" d="M 12.660156 21.734375 C 12.515625 21.902344 12.296875 22 12.070312 22 C 11.84375 22 11.625 21.902344 11.480469 21.734375 C 9.484375 19.476562 7.347656 17.34375 5.074219 15.34375 C 1.960938 12.515625 0 10.738281 0 7.71875 C 0.03125 4.527344 2.734375 1.96875 6.035156 2 C 8.140625 2.105469 10.058594 3.199219 11.171875 4.929688 C 11.511719 5.390625 11.8125 5.871094 12.074219 6.375 C 12.332031 5.871094 12.632812 5.386719 12.972656 4.929688 C 14.085938 3.199219 16.003906 2.105469 18.109375 2 C 21.410156 1.96875 24.113281 4.527344 24.144531 7.71875 C 24.144531 10.738281 22.183594 12.519531 19.066406 15.34375 C 16.796875 17.34375 14.660156 19.476562 12.660156 21.734375 Z M 12.660156 21.734375 "/>
</g>
</svg>

<?xml version="1.0" encoding="UTF-8"?>
<svg xmlns="http://www.w3.org/2000/svg" viewBox="0 0 24 24">
    <defs>
        <style>
            .cls-1 {
            stroke:none;
            fill-rule:nonzero;
            fill:currentColor;
            fill-opacity:1;
            }
        </style>
    </defs>
    <path class="cls-1"
          d="M12.66 21.734a.782.782 0 0 1-.59.266.782.782 0 0 1-.59-.266 72.2 72.2 0 0 0-6.406-6.39C1.961 12.516 0 10.738 0 7.719.031 4.527 2.734 1.969 6.035 2c2.106.105 4.024 1.2 5.137 2.93.34.46.64.941.902 1.445.258-.504.559-.988.899-1.445 1.113-1.73 3.03-2.825 5.136-2.93 3.301-.031 6.004 2.527 6.036 5.719 0 3.02-1.961 4.8-5.079 7.625-2.27 2-4.406 4.133-6.406 6.39Zm0 0"/>
</svg>
